app/images/customer-modal/third-modal/files-outline.svg

<svg width="65" height="60" viewBox="0 0 65 60" fill="none" xmlns="http://www.w3.org/2000/svg">
<path d="M59.5217 16.0261C58.7759 14.0891 57.2452 12.603 55.3762 11.8831C54.31 9.10886 51.6349 7.25702 48.6609 7.25702H28.6218C28.1204 6.72972 27.6014 6.27045 27.0629 5.87896L24.6391 3.28186C22.6127 1.07339 20.297 0 17.5594 0H7.19222C3.22639 0 0 3.22639 0 7.19222V44.514C0 47.488 1.85184 50.1631 4.62596 51.2294C5.3457 53.0984 6.83171 54.6289 8.76907 55.3747C9.80501 58.0762 12.4244 60 15.486 60H56.9546C60.9205 60 64.1469 56.7736 64.1469 52.8078V22.743C64.1469 19.6814 62.2232 17.062 59.5217 16.0261ZM57.078 15.5539C57.0368 15.5532 56.996 15.5508 56.9546 15.5508H36.6426L34.5867 13.3477H52.8078C54.525 13.3477 56.1067 14.1955 57.078 15.5539ZM52.9306 11.4063C52.8897 11.4057 52.8489 11.4039 52.8078 11.4039H33.1101C33.0065 11.4039 32.9068 11.4205 32.8131 11.4505C31.9734 10.5587 31.0844 9.85762 30.1363 9.34652C30.1405 9.29806 30.1419 9.24946 30.1388 9.20086H48.6609C50.3782 9.20086 51.9595 10.0483 52.9306 11.4063ZM1.94384 44.514V7.19222C1.94384 4.29823 4.29823 1.94384 7.19222 1.94384H17.5594C19.5883 1.94384 21.276 2.66721 22.8365 4.21322C22.4676 4.17058 22.0915 4.14687 21.7063 4.14687H11.3391C7.37326 4.14687 4.14687 7.37326 4.14687 11.3391V48.6609C4.14687 48.702 4.14855 48.7428 4.14933 48.7838C2.79123 47.8125 1.94384 46.2314 1.94384 44.514ZM6.09071 48.6609V11.3391C6.09071 8.4451 8.4451 6.09071 11.3391 6.09071H21.7063C23.2197 6.09071 24.5434 6.4927 25.766 7.3384L26.6929 8.33158C26.417 8.30812 26.1378 8.29374 25.8531 8.29374H15.486C11.5201 8.29374 8.29374 11.5201 8.29374 15.486V52.8078C8.29374 52.8491 8.2962 52.8899 8.29685 52.9311C6.93849 51.96 6.09071 50.3786 6.09071 48.6609ZM62.203 52.8078C62.203 55.7018 59.8486 58.0562 56.9546 58.0562H15.486C12.592 58.0562 10.2376 55.7018 10.2376 52.8078V28.9633C10.2376 26.0693 12.592 23.7149 15.486 23.7149H56.9546C59.8486 23.7149 62.203 26.0693 62.203 28.9633V52.8078ZM56.9546 21.7711H15.486C13.4172 21.7711 11.551 22.6502 10.2376 24.0531V15.486C10.2376 12.592 12.592 10.2376 15.486 10.2376H25.8531C28.0458 10.2376 29.8403 11.0803 31.5061 12.8957L35.5098 17.1858C35.6935 17.3828 35.9509 17.4946 36.2203 17.4946H56.9546C59.8486 17.4946 62.203 19.849 62.203 22.743V24.0531C60.8896 22.6502 59.0234 21.7711 56.9546 21.7711Z" fill="#303030"/>
<path d="M56.9547 27.9912H45.5508C45.014 27.9912 44.5789 28.4262 44.5789 28.9631C44.5789 29.5 45.014 29.9351 45.5508 29.9351H56.9547C57.4914 29.9351 57.9266 29.5 57.9266 28.9631C57.9266 28.4262 57.4914 27.9912 56.9547 27.9912Z" fill="#303030"/>
<path d="M56.9547 32.1382H45.5508C45.014 32.1382 44.5789 32.5732 44.5789 33.1101C44.5789 33.647 45.014 34.082 45.5508 34.082H56.9547C57.4914 34.082 57.9266 33.647 57.9266 33.1101C57.9266 32.5732 57.4914 32.1382 56.9547 32.1382Z" fill="#303030"/>
</svg>

<svg width="65" height="60" fill="none" xmlns="http://www.w3.org/2000/svg"><path d="M59.522 16.026a7.229 7.229 0 00-4.146-4.143 7.215 7.215 0 00-6.715-4.626H28.62a11.442 11.442 0 00-1.558-1.378l-2.424-2.597C22.613 1.073 20.297 0 17.56 0H7.192C3.226 0 0 3.226 0 7.192v37.322a7.215 7.215 0 004.626 6.715 7.227 7.227 0 004.143 4.146C9.805 58.076 12.424 60 15.486 60h41.469c3.965 0 7.192-3.226 7.192-7.192V22.743c0-3.062-1.924-5.681-4.625-6.717zm-2.444-.472l-.123-.003H36.643l-2.056-2.203h18.22c1.718 0 3.3.847 4.271 2.206zm-4.147-4.148l-.123-.002H33.11a.972.972 0 00-.297.046c-.84-.891-1.729-1.592-2.677-2.103a.97.97 0 00.003-.146H48.66a5.26 5.26 0 014.27 2.205zM1.944 44.514V7.192a5.254 5.254 0 015.248-5.248H17.56c2.03 0 3.717.723 5.277 2.27a9.824 9.824 0 00-1.13-.067H11.34c-3.966 0-7.192 3.226-7.192 7.192v37.322l.002.123a5.26 5.26 0 01-2.205-4.27zm4.147 4.147V11.339a5.254 5.254 0 015.248-5.248h10.367c1.514 0 2.837.402 4.06 1.247l.927.994a9.888 9.888 0 00-.84-.038H15.486c-3.966 0-7.192 3.226-7.192 7.192v37.322l.003.123a5.26 5.26 0 01-2.206-4.27zm56.112 4.147a5.254 5.254 0 01-5.248 5.248H15.486a5.254 5.254 0 01-5.248-5.248V28.963a5.254 5.254 0 015.248-5.248h41.469a5.254 5.254 0 015.248 5.248v23.845zM56.955 21.77H15.486c-2.069 0-3.935.88-5.248 2.282v-8.567a5.254 5.254 0 015.248-5.248h10.367c2.193 0 3.987.842 5.653 2.658l4.004 4.29a.971.971 0 00.71.309h20.735a5.254 5.254 0 015.248 5.248v1.31a7.172 7.172 0 00-5.248-2.282z" fill="#303030"/><path d="M56.955 27.991H45.55a.972.972 0 100 1.944h11.404a.972.972 0 000-1.944zM56.955 32.138H45.55a.972.972 0 100 1.944h11.404a.972.972 0 100-1.944z" fill="#303030"/></svg>
